findly-builder/apps/searchassist/src/assets/icons/sidemenu/delete.svg

<svg width="12" height="12" viewBox="0 0 12 12" fill="none" xmlns="http://www.w3.org/2000/svg">
<path d="M5.02208 4.93363C5.29237 4.93363 5.51432 5.14057 5.53815 5.40465L5.54027 5.45182V8.74091C5.54027 9.02709 5.30827 9.25909 5.02208 9.25909C4.75179 9.25909 4.52984 9.05216 4.50601 8.78807L4.5039 8.74091V5.45182C4.5039 5.16563 4.7359 4.93363 5.02208 4.93363Z" fill="#DD3646"/>
<path d="M7.73088 5.40465C7.70705 5.14057 7.4851 4.93363 7.21481 4.93363C6.92862 4.93363 6.69662 5.16563 6.69662 5.45182V8.74091L6.69874 8.78807C6.72257 9.05216 6.94452 9.25909 7.21481 9.25909C7.50099 9.25909 7.73299 9.02709 7.73299 8.74091V5.45182L7.73088 5.40465Z" fill="#DD3646"/>
<path fill-rule="evenodd" clip-rule="evenodd" d="M7.21481 0C8.08303 0 8.79119 0.685314 8.82787 1.54451L8.82936 1.61455V2.19273H11.0521C11.3383 2.19273 11.5703 2.42473 11.5703 2.71091C11.5703 2.9812 11.3633 3.20315 11.0992 3.22698L11.0521 3.2291H10.4739V10.3855C10.4739 11.2537 9.78859 11.9618 8.92939 11.9985L8.85935 12H3.37754C2.50931 12 1.80115 11.3147 1.76448 10.4555L1.76299 10.3855V3.2291H1.18481C0.898626 3.2291 0.666626 2.9971 0.666626 2.71091C0.666626 2.44062 0.873564 2.21867 1.13765 2.19484L1.18481 2.19273H3.40753V1.61455C3.40753 0.746324 4.09285 0.0381621 4.95205 0.00149169L5.02208 0H7.21481ZM2.79936 3.2291V10.3855C2.79936 10.6888 3.03298 10.9376 3.33012 10.9617L3.37754 10.9636H8.85935C9.1627 10.9636 9.41149 10.73 9.43561 10.4329L9.43753 10.3855V3.2291H2.79936ZM7.79298 2.19273H4.44391V1.61455L4.44582 1.56713C4.46994 1.26999 4.71873 1.03637 5.02208 1.03637H7.21481L7.26223 1.03829C7.55936 1.06241 7.79298 1.3112 7.79298 1.61455V2.19273Z" fill="#DD3646"/>
</svg>

<svg width="12" height="12" fill="none" xmlns="http://www.w3.org/2000/svg"><path d="M5.022 4.934c.27 0 .492.207.516.47l.002.048V8.74a.518.518 0 0 1-1.034.047l-.002-.047V5.45c0-.285.232-.517.518-.517Zm2.708.471a.518.518 0 0 0-1.033.047V8.74l.002.047a.518.518 0 0 0 1.034-.047V5.45l-.002-.046Z" fill="#DD3646"/><path fill-rule="evenodd" clip-rule="evenodd" d="M7.215 0c.868 0 1.576.685 1.613 1.545l.001.07v.578h2.223a.518.518 0 0 1 .047 1.034l-.047.002h-.578v7.157c0 .868-.685 1.576-1.545 1.613L8.86 12H3.378a1.615 1.615 0 0 1-1.614-1.544l-.001-.07V3.229h-.578a.518.518 0 0 1-.047-1.034l.047-.002h2.223v-.578C3.408.746 4.093.038 4.952 0h2.263ZM2.799 3.23v7.155c0 .304.234.553.531.577l.048.002h5.481a.578.578 0 0 0 .577-.531l.002-.047V3.229H2.799Zm4.994-1.037h-3.35v-.578l.003-.048a.578.578 0 0 1 .576-.53h2.193l.047.001a.579.579 0 0 1 .531.577v.578Z" fill="#DD3646"/></svg>
